apps/app.mento.org/public/tokens/GHSm.svg

<svg width="220" height="220" viewBox="0 0 220 220" fill="none" xmlns="http://www.w3.org/2000/svg">
<path d="M110 220C170.751 220 220 170.751 220 110C220 49.2487 170.751 0 110 0C49.2487 0 0 49.2487 0 110C0 170.751 49.2487 220 110 220Z" fill="#510DC1"/>
<path d="M110 23C158.049 23 197 61.9512 197 110C197 158.049 158.049 197 110 197C61.9512 197 23 158.049 23 110C23 61.9512 61.9512 23 110 23Z" stroke="url(#paint0_linear_2057_411)" stroke-width="36"/>
<path d="M110 202C160.81 202 202 160.81 202 110C202 59.1898 160.81 18 110 18C59.1898 18 18 59.1898 18 110C18 160.81 59.1898 202 110 202Z" fill="#510DC1"/>
<path d="M104.073 164.985V150.689C92.8894 149.577 83.7126 145.933 76.782 139.84C68.3006 132.35 64 121.951 64 108.927C64 94.8493 68.8922 83.8398 78.5326 76.2045C85.4392 70.7216 94.0325 67.4638 104.065 66.5039V55H121.059V66.8021C133.154 68.2928 142.483 72.6122 148.79 79.6295C153.226 84.647 155.648 89.7663 155.976 94.8348L156 95.2201H133.865L133.777 94.9729C132.41 91.1916 130.644 88.3047 128.518 86.3922C126.575 84.647 124.065 83.3308 121.059 82.4728V134.502C123.985 133.557 126.463 132.103 128.438 130.176C130.564 128.154 132.363 125.063 133.777 120.991L133.865 120.737H155.856L155.768 121.166C153.906 129.972 149.077 137.244 141.435 142.763C135.824 146.791 128.973 149.38 121.067 150.471V165H104.073V164.985ZM104.073 82.1382C99.828 83.2363 96.2308 85.3742 93.369 88.5156C88.9565 93.3513 86.7102 100.31 86.7102 109.196C86.7102 118.083 89.0684 124.809 93.7287 129.201C96.6544 131.964 100.132 133.884 104.073 134.909V82.131V82.1382Z" fill="url(#paint1_linear_2057_411)"/>
<defs>
<linearGradient id="paint0_linear_2057_411" x1="110" y1="5" x2="110" y2="215" gradientUnits="userSpaceOnUse">
<stop stop-color="#FF0000"/>
<stop offset="0.413462" stop-color="#FEF100"/>
<stop offset="0.639423" stop-color="#FEF100"/>
<stop offset="1" stop-color="#6DDD11"/>
</linearGradient>
<linearGradient id="paint1_linear_2057_411" x1="110" y1="55" x2="110" y2="165" gradientUnits="userSpaceOnUse">
<stop stop-color="#E2DBFF"/>
<stop offset="0.975962" stop-color="#FBFAFF"/>
</linearGradient>
</defs>
</svg>

<svg xmlns="http://www.w3.org/2000/svg" width="220" height="220" fill="none" viewBox="0 0 220 220"><path fill="#510dc1" d="M110 220c60.751 0 110-49.249 110-110S170.751 0 110 0 0 49.249 0 110s49.249 110 110 110"/><path stroke="url(#a)" stroke-width="36" d="M110 23c48.049 0 87 38.951 87 87s-38.951 87-87 87-87-38.951-87-87 38.951-87 87-87Z"/><path fill="#510dc1" d="M110 202c50.81 0 92-41.19 92-92s-41.19-92-92-92-92 41.19-92 92 41.19 92 92 92"/><path fill="url(#b)" d="M104.073 164.985v-14.296c-11.184-1.112-20.36-4.756-27.291-10.849C68.301 132.35 64 121.951 64 108.927c0-14.078 4.892-25.087 14.533-32.723 6.906-5.482 15.5-8.74 25.532-9.7V55h16.994v11.802c12.095 1.49 21.424 5.81 27.731 12.827 4.436 5.018 6.858 10.137 7.186 15.206l.024.385h-22.135l-.088-.247c-1.367-3.781-3.133-6.668-5.259-8.58-1.943-1.746-4.453-3.062-7.459-3.92v52.029c2.926-.945 5.404-2.399 7.379-4.326 2.126-2.022 3.925-5.113 5.339-9.185l.088-.254h21.991l-.088.429c-1.862 8.806-6.691 16.078-14.333 21.597-5.611 4.028-12.462 6.617-20.368 7.708V165h-16.994zm0-82.847c-4.245 1.098-7.842 3.236-10.704 6.378-4.412 4.835-6.659 11.794-6.659 20.68 0 8.887 2.358 15.613 7.019 20.005 2.925 2.763 6.403 4.683 10.344 5.708V82.131z"/><defs><linearGradient id="a" x1="110" x2="110" y1="5" y2="215" gradientUnits="userSpaceOnUse"><stop stop-color="red"/><stop offset=".413" stop-color="#fef100"/><stop offset=".639" stop-color="#fef100"/><stop offset="1" stop-color="#6ddd11"/></linearGradient><linearGradient id="b" x1="110" x2="110" y1="55" y2="165" gradientUnits="userSpaceOnUse"><stop stop-color="#e2dbff"/><stop offset=".976" stop-color="#fbfaff"/></linearGradient></defs></svg>
